images/icons.svg/Client-three.svg

<svg width="168" height="88" viewBox="0 0 168 88" fill="none" xmlns="http://www.w3.org/2000/svg">
<g id="Client 3">
<rect id="Rectangle 9" x="0.5" y="0.5" width="167" height="87" rx="3.5" stroke="#8E8F99"/>
<g id="Logo">
<g id="group">
<g id="Object">
<path id="Vector" d="M68.8098 65.2233C68.8259 65.2236 68.8418 65.2268 68.8565 65.2324C68.8712 65.2381 68.8844 65.2462 68.8954 65.2563L69.1162 65.4639C68.9448 65.6319 68.733 65.7662 68.4951 65.8578C68.2167 65.9577 67.9165 66.0059 67.6146 65.9993C67.3309 66.0043 67.049 65.9593 66.7865 65.8672C66.5497 65.7826 66.337 65.6555 66.1626 65.4945C65.9848 65.3275 65.8477 65.1319 65.7596 64.919C65.6632 64.6817 65.6155 64.4319 65.6189 64.1807C65.6149 63.9279 65.6664 63.6766 65.7707 63.44C65.8671 63.2258 66.0126 63.0301 66.1985 62.8645C66.387 62.702 66.6125 62.5744 66.861 62.4894C67.1329 62.3994 67.4224 62.3545 67.714 62.3573C67.9848 62.3517 68.2542 62.3926 68.5062 62.4776C68.7248 62.5587 68.9255 62.6712 69.0997 62.8102L68.9147 63.0319C68.9019 63.0475 68.8861 63.0611 68.8678 63.072C68.846 63.0848 68.8196 63.0907 68.7933 63.0886C68.7646 63.0869 68.737 63.0787 68.7132 63.065L68.6138 63.006L68.4758 62.9305C68.4162 62.9025 68.3544 62.8781 68.2909 62.8574C68.209 62.8324 68.125 62.8126 68.0397 62.7984C67.9314 62.7814 67.8213 62.7735 67.7112 62.7748C67.5012 62.7726 67.2929 62.8063 67.0984 62.8739C66.917 62.9365 66.7533 63.0314 66.6181 63.1522C66.4805 63.2807 66.3744 63.4315 66.3062 63.5957C66.2284 63.7835 66.1901 63.9815 66.193 64.1807C66.1897 64.3829 66.228 64.5841 66.3062 64.7751C66.3735 64.9378 66.4776 65.0877 66.6126 65.2162C66.739 65.336 66.8957 65.4295 67.0708 65.4898C67.251 65.5536 67.4444 65.5857 67.6394 65.5842C67.7521 65.5856 67.8647 65.5793 67.9762 65.5653C68.1582 65.5463 68.3328 65.4923 68.4869 65.4072C68.5641 65.3637 68.6371 65.3148 68.7049 65.261C68.7333 65.2379 68.7706 65.2244 68.8098 65.2233Z" fill="#8E8F99"/>
<path id="Vector_2" d="M75.1861 64.1803C75.1896 64.4305 75.139 64.6792 75.0371 64.9138C74.9471 65.1266 74.8054 65.3207 74.6213 65.4834C74.4371 65.646 74.2148 65.7734 73.9688 65.8573C73.4284 66.0334 72.831 66.0334 72.2906 65.8573C72.0462 65.7721 71.8253 65.6444 71.6419 65.4822C71.4579 65.3167 71.3151 65.1209 71.2223 64.9067C71.0235 64.4317 71.0235 63.9124 71.2223 63.4373C71.3165 63.2231 71.459 63.0267 71.6419 62.8595C71.8268 62.7024 72.0476 62.5796 72.2906 62.4986C72.8303 62.3193 73.4291 62.3193 73.9688 62.4986C74.214 62.5837 74.4359 62.7114 74.6203 62.8736C74.802 63.0376 74.9437 63.2308 75.0371 63.442C75.1393 63.6782 75.1899 63.9285 75.1861 64.1803ZM74.6065 64.1803C74.6108 63.9801 74.5753 63.7807 74.5016 63.5906C74.4397 63.4278 74.3392 63.2777 74.2062 63.1496C74.0768 63.0284 73.9174 62.9333 73.7397 62.8713C73.347 62.7423 72.9123 62.7423 72.5197 62.8713C72.3419 62.9333 72.1826 63.0284 72.0532 63.1496C71.9184 63.2769 71.8168 63.4272 71.7551 63.5906C71.6146 63.9746 71.6146 64.386 71.7551 64.7699C71.8174 64.9331 71.9189 65.0833 72.0532 65.211C72.1828 65.3315 72.3421 65.4257 72.5197 65.487C72.913 65.6126 73.3463 65.6126 73.7397 65.487C73.9173 65.4257 74.0766 65.3315 74.2062 65.211C74.3386 65.0826 74.4391 64.9325 74.5016 64.7699C74.5757 64.5799 74.6111 64.3805 74.6065 64.1803Z" fill="#8E8F99"/>
<path id="Vector_3" d="M79.5365 64.7987L79.5944 64.9308C79.6165 64.8836 79.6358 64.8412 79.6579 64.7987C79.679 64.7544 79.7029 64.7111 79.7297 64.669L81.1402 62.4781C81.1678 62.4404 81.1927 62.4168 81.2203 62.4097C81.2578 62.4 81.297 62.396 81.3362 62.3979H81.753V65.9614H81.2589V63.3413C81.2589 63.3083 81.2589 63.2705 81.2589 63.2304C81.2562 63.1896 81.2562 63.1486 81.2589 63.1078L79.8401 65.3293C79.8221 65.3626 79.7933 65.3908 79.757 65.4104C79.7208 65.4301 79.6787 65.4404 79.6358 65.4402H79.5558C79.5128 65.4407 79.4706 65.4305 79.4343 65.4108C79.398 65.3911 79.3692 65.3628 79.3515 65.3293L77.8913 63.0937C77.8913 63.1361 77.8913 63.1786 77.8913 63.221C77.8913 63.2635 77.8913 63.3012 77.8913 63.3342V65.9543H77.4138V62.3979H77.8306C77.8697 62.396 77.909 62.4 77.9465 62.4097C77.9807 62.4242 78.008 62.4484 78.0238 62.4781L79.4647 64.6714C79.493 64.7119 79.517 64.7545 79.5365 64.7987Z" fill="#8E8F99"/>
<path id="Vector_4" d="M84.8447 64.6217V65.9564H84.2926V62.3978H85.5237C85.7561 62.394 85.9878 62.4202 86.211 62.4756C86.3897 62.5189 86.5554 62.5945 86.6969 62.6973C86.8195 62.7937 86.914 62.9132 86.9729 63.0463C87.0381 63.1915 87.0699 63.346 87.0667 63.5015C87.0692 63.6576 87.0344 63.8124 86.9646 63.9566C86.8983 64.0932 86.7963 64.215 86.6665 64.3127C86.5249 64.4198 86.3584 64.5002 86.1779 64.5486C85.963 64.6072 85.7382 64.6351 85.5127 64.6311L84.8447 64.6217ZM84.8447 64.2396H85.5127C85.6578 64.2412 85.8022 64.2229 85.9405 64.1854C86.0546 64.1526 86.1598 64.1004 86.2497 64.0321C86.3326 63.9668 86.3968 63.8862 86.4374 63.7963C86.4826 63.7012 86.5051 63.5994 86.5036 63.4968C86.5101 63.3978 86.4912 63.2989 86.4483 63.2069C86.4054 63.1148 86.3395 63.0319 86.2552 62.9638C86.0443 62.8231 85.7794 62.755 85.5127 62.7728H84.8447V64.2396Z" fill="#8E8F99"/>
<path id="Vector_5" d="M92.2645 65.9613H91.8283C91.7846 65.9627 91.7416 65.951 91.7069 65.9282C91.6756 65.906 91.651 65.8777 91.6351 65.8457L91.2597 64.9848H89.3744L88.9852 65.8457C88.9709 65.8772 88.9471 65.9048 88.9162 65.9259C88.8811 65.95 88.837 65.9626 88.792 65.9613H88.3558L90.012 62.3975H90.5862L92.2645 65.9613ZM89.5317 64.6381H91.0886L90.4316 63.1876C90.3814 63.0785 90.3399 62.9666 90.3074 62.8527L90.2439 63.039C90.2246 63.0956 90.2025 63.1475 90.1832 63.1899L89.5317 64.6381Z" fill="#8E8F99"/>
<path id="Vector_6" d="M94.6495 62.414C94.6825 62.4295 94.7109 62.4513 94.7323 62.4777L97.1476 65.1641C97.1476 65.1216 97.1476 65.0792 97.1476 65.0391C97.1476 64.999 97.1476 64.9589 97.1476 64.9212V62.3975H97.6417V65.9613H97.3657C97.3265 65.9623 97.2876 65.955 97.2525 65.9401C97.2184 65.9231 97.1884 65.9006 97.1642 65.874L94.7517 63.19C94.7543 63.2309 94.7543 63.2718 94.7517 63.3126C94.7517 63.3527 94.7517 63.3881 94.7517 63.4211V65.9613H94.2576V62.3975H94.5502C94.5843 62.3967 94.6182 62.4024 94.6495 62.414Z" fill="#8E8F99"/>
<path id="Vector_7" d="M101.71 64.5438V65.9589H101.158V64.5438L99.6318 62.3975H100.126C100.169 62.3954 100.211 62.4062 100.245 62.4282C100.275 62.4511 100.3 62.4782 100.319 62.5084L101.274 63.8928C101.313 63.9518 101.346 64.006 101.374 64.0579C101.401 64.1098 101.423 64.1593 101.443 64.2089L101.514 64.0556C101.541 63.9995 101.573 63.9451 101.608 63.8928L102.55 62.4989C102.569 62.4711 102.593 62.4457 102.621 62.4235C102.654 62.399 102.697 62.3864 102.74 62.3881H103.24L101.71 64.5438Z" fill="#8E8F99"/>
<path id="Vector_8" d="M79.2632 56.417C79.5033 56.4429 79.7462 56.4642 79.9919 56.483C83.7165 55.0595 86.8673 52.7295 89.0506 49.7844C91.2338 46.8393 92.3527 43.4097 92.2672 39.9243L88.1626 36.4172C88.9972 40.1281 88.6068 43.9642 87.0351 47.4963C85.4634 51.0284 82.7724 54.1171 79.2632 56.417Z" fill="#8E8F99"/>
<path id="Vector_9" d="M77.7975 56.2539L77.9079 56.2728C81.6578 53.9811 84.5168 50.7809 86.1151 47.0861C87.7135 43.3912 87.9776 39.3717 86.8735 35.5472L81.0271 30.5521C83.3918 34.658 84.3436 39.253 83.7719 43.8029C83.2002 48.3528 81.1284 52.6705 77.7975 56.2539Z" fill="#8E8F99"/>
<path id="Vector_10" d="M97.6251 44.0424C96.6318 47.872 94.2195 51.3258 90.7463 53.8911C89.7319 54.6444 88.6378 55.3155 87.478 55.8957C90.3062 55.1855 92.9057 53.9298 95.0761 52.2255C97.2465 50.5213 98.9298 48.4139 99.9962 46.0659L97.6251 44.0424Z" fill="#8E8F99"/>
<path id="Vector_11" d="M96.6948 43.4784L93.3189 40.594C93.2544 43.8825 92.1602 47.0963 90.15 49.9012C88.1399 52.7062 85.2871 55 81.8883 56.5442H81.9049C82.6623 56.5439 83.419 56.5053 84.1711 56.4286C87.3475 55.3209 90.1535 53.5586 92.3388 51.2989C94.524 49.0392 96.0206 46.3525 96.6948 43.4784Z" fill="#8E8F99"/>
<path id="Vector_12" d="M78.2861 28.4457L74.2587 25C70.6584 26.1887 67.562 28.2784 65.3747 30.9955C63.1875 33.7127 62.0112 36.9308 62 40.2285V40.2285C62.0135 43.8725 63.449 47.4085 66.0793 50.2769C68.7096 53.1454 72.3845 55.1824 76.5222 56.0656C80.216 52.2205 82.3786 47.4693 82.6958 42.5023C83.013 37.5353 81.4683 32.6113 78.2861 28.4457Z" fill="#8E8F99"/>
<path id="Vector_13" d="M106 42.9478C105.985 38.6245 103.969 34.4818 100.391 31.4247C96.8127 28.3676 91.964 26.6447 86.9039 26.6322C84.5657 26.6301 82.2473 26.9988 80.0665 27.7194L104.725 48.7873C105.569 46.925 106.001 44.945 106 42.9478Z" fill="#8E8F99"/>
</g>
</g>
</g>
</g>
</svg>

<svg xmlns="http://www.w3.org/2000/svg" width="168" height="88" fill="none"><rect width="167" height="87" x=".5" y=".5" stroke="#8E8F99" rx="3.5"/><g fill="#8E8F99"><path d="M68.81 65.223c.016 0 .032.004.046.01a.123.123 0 0 1 .04.023l.22.208a1.819 1.819 0 0 1-.62.394c-.28.1-.58.148-.881.141a2.38 2.38 0 0 1-.828-.132 1.822 1.822 0 0 1-.624-.373 1.667 1.667 0 0 1-.403-.575 1.89 1.89 0 0 1-.141-.738 1.763 1.763 0 0 1 .152-.741c.096-.214.242-.41.427-.575a2.01 2.01 0 0 1 .663-.376 2.64 2.64 0 0 1 .853-.132c.27-.005.54.036.792.12.219.082.42.194.594.333l-.185.222a.179.179 0 0 1-.047.04.128.128 0 0 1-.075.017.183.183 0 0 1-.08-.024l-.1-.059-.137-.075a1.604 1.604 0 0 0-.436-.133 1.97 1.97 0 0 0-.329-.023 1.813 1.813 0 0 0-.613.099 1.41 1.41 0 0 0-.48.278c-.137.129-.244.28-.312.444a1.47 1.47 0 0 0-.113.585 1.5 1.5 0 0 0 .113.594 1.262 1.262 0 0 0 .765.715c.18.064.373.096.568.094.113.002.226-.005.337-.019a1.348 1.348 0 0 0 .729-.304.175.175 0 0 1 .105-.038ZM75.186 64.18c.004.25-.047.5-.149.734a1.59 1.59 0 0 1-.416.57c-.184.162-.406.29-.652.373a2.732 2.732 0 0 1-1.678 0 1.944 1.944 0 0 1-.65-.375 1.67 1.67 0 0 1-.419-.575 1.885 1.885 0 0 1 0-1.47c.095-.214.237-.41.42-.578.185-.157.406-.28.649-.36.54-.18 1.138-.18 1.678 0 .245.085.467.212.651.375a1.689 1.689 0 0 1 .566 1.306Zm-.58 0c.005-.2-.03-.4-.104-.59a1.213 1.213 0 0 0-.762-.719 1.971 1.971 0 0 0-1.22 0 1.314 1.314 0 0 0-.467.279 1.184 1.184 0 0 0-.298.44c-.14.385-.14.796 0 1.18.062.163.164.313.298.441.13.12.29.215.467.276.393.126.826.126 1.22 0 .177-.061.337-.155.466-.276.133-.128.233-.278.296-.441.074-.19.11-.39.105-.59ZM79.537 64.799l.057.132c.023-.047.042-.09.064-.132.021-.045.045-.088.072-.13l1.41-2.19c.028-.039.053-.062.08-.07a.388.388 0 0 1 .116-.011h.417v3.563h-.494v-2.73a.929.929 0 0 1 0-.123l-1.419 2.221a.203.203 0 0 1-.083.081.252.252 0 0 1-.121.03h-.08a.25.25 0 0 1-.122-.03.2.2 0 0 1-.082-.08l-1.46-2.236V65.954h-.478v-3.556h.417a.389.389 0 0 1 .115.012.155.155 0 0 1 .078.068l1.44 2.193c.029.04.053.083.073.128ZM84.845 64.622v1.334h-.552v-3.558h1.23c.233-.004.465.022.688.078.179.043.344.118.486.221a.92.92 0 0 1 .276.35c.065.145.097.299.094.455a.99.99 0 0 1-.4.811 1.42 1.42 0 0 1-.49.236c-.214.058-.439.086-.664.082l-.668-.01Zm0-.382h.668c.145.001.29-.017.427-.055a.94.94 0 0 0 .31-.153.673.673 0 0 0 .254-.535.592.592 0 0 0-.056-.29.687.687 0 0 0-.193-.243 1.202 1.202 0 0 0-.742-.191h-.668v1.467ZM92.264 65.961h-.436a.21.21 0 0 1-.121-.033.224.224 0 0 1-.072-.082l-.375-.861h-1.886l-.389.86a.196.196 0 0 1-.069.08.21.21 0 0 1-.124.036h-.436l1.656-3.563h.574l1.678 3.563Zm-2.732-1.323h1.557l-.657-1.45a2.332 2.332 0 0 1-.125-.335l-.063.186c-.02.057-.041.108-.06.15l-.652 1.45ZM94.65 62.414a.234.234 0 0 1 .082.064l2.416 2.686v-2.767h.494v3.564h-.276a.273.273 0 0 1-.114-.02.3.3 0 0 1-.088-.067l-2.412-2.684a.964.964 0 0 1 0 .123v2.648h-.494v-3.563h.292c.034-.001.068.004.1.016ZM101.71 64.544v1.415h-.552v-1.415l-1.526-2.146h.494a.202.202 0 0 1 .119.03c.03.023.055.05.074.08l.955 1.385a1.698 1.698 0 0 1 .169.316l.071-.153c.027-.056.059-.11.094-.163l.942-1.394a.346.346 0 0 1 .071-.076.189.189 0 0 1 .119-.035h.5l-1.53 2.156ZM79.263 56.417c.24.026.483.047.729.066 3.724-1.423 6.875-3.753 9.059-6.699 2.183-2.945 3.302-6.374 3.216-9.86l-4.104-3.507c.834 3.711.444 7.547-1.128 11.08-1.572 3.531-4.263 6.62-7.772 8.92Z"/><path d="m77.797 56.254.11.019c3.75-2.292 6.61-5.492 8.208-9.187 1.599-3.695 1.863-7.714.759-11.539l-5.847-4.995c2.365 4.106 3.317 8.701 2.745 13.25-.572 4.55-2.644 8.868-5.975 12.452ZM97.625 44.042c-.993 3.83-3.406 7.284-6.879 9.85a21.958 21.958 0 0 1-3.268 2.004c2.828-.71 5.428-1.966 7.598-3.67 2.17-1.705 3.854-3.812 4.92-6.16l-2.37-2.024Z"/><path d="m96.695 43.478-3.376-2.884c-.065 3.288-1.159 6.502-3.169 9.307-2.01 2.805-4.863 5.099-8.262 6.643h.017c.757 0 1.514-.039 2.266-.115 3.176-1.108 5.982-2.87 8.168-5.13 2.185-2.26 3.682-4.947 4.356-7.82ZM78.286 28.446 74.26 25c-3.6 1.189-6.697 3.278-8.884 5.995-2.188 2.718-3.364 5.936-3.375 9.233.014 3.645 1.449 7.18 4.08 10.049 2.63 2.868 6.305 4.905 10.442 5.789 3.694-3.846 5.857-8.597 6.174-13.564.317-4.967-1.228-9.89-4.41-14.056ZM106 42.948c-.015-4.324-2.031-8.466-5.609-11.523-3.578-3.057-8.427-4.78-13.487-4.793a21.774 21.774 0 0 0-6.837 1.087l24.658 21.068a14.099 14.099 0 0 0 1.275-5.84Z"/></g></svg>
